X:33
T:The cruel Father
T:pretty
Z:Jack Campin - http://www.campin.me.uk
S:Blaikie MS (NLS MS.1578) p12, Blaikie #32
M:3/4
L:1/8
V:1 midi program 1 74
V:2 midi program 1 46 bass middle = d transpose -24
Q:1/4=100
K:F
[V:1] F2|Ac  B2 AG|FE  F2 zF|Ac d3  B|A c3
[V:2] z2|f2  d2 c2|fc  f2 f2|f2 b2 g2|f2 f2
%
[V:1] zc|ff _e2 d2|c>B A2 zF|Ac B2 GF|E F3|]
[V:2] z2|a4     b2|ag  f2 f2|f2 d2 ef|c F3|]
W:Transcription (c) Jack Campin 2009, no mirroring or republication without permission

